packages/foundations/assets/icons/functional/images/audio & video/fast_forward_10_20.svg

<svg width="20" height="20" viewBox="0 0 20 20" fill="none" xmlns="http://www.w3.org/2000/svg">
<g clip-path="url(#clip0_184_284)">
<path fill-rule="evenodd" clip-rule="evenodd" d="M4.04601 15.4745C4.69001 15.4745 5.08001 14.9285 5.08001 14.5185C5.08001 14.0495 4.33901 12.9185 4.33901 11.6485C4.33901 8.9545 6.38901 6.9245 8.88701 6.6905L8.20401 7.3345C8.04801 7.5295 7.91101 7.7835 7.91101 8.0375C7.91101 8.5445 8.37901 8.9935 8.90701 8.9935C9.16001 8.9935 9.43901 8.9015 9.62301 8.7155L11.801 6.5195C11.986 6.3335 12.069 6.0655 12.069 5.8115C12.0694 5.69128 12.0453 5.57224 11.9984 5.46156C11.9515 5.35087 11.8827 5.25084 11.796 5.1675L9.58901 2.9425C9.5011 2.85002 9.39532 2.77636 9.27809 2.72599C9.16085 2.67563 9.03461 2.6496 8.90701 2.6495C8.64335 2.65055 8.39078 2.75569 8.20425 2.94203C8.01772 3.12837 7.91233 3.38084 7.91101 3.6445C7.91131 3.77236 7.93741 3.89885 7.98775 4.01638C8.0381 4.13391 8.11166 4.24007 8.20401 4.3285L8.65301 4.7775C6.94153 4.93517 5.35111 5.7279 4.1949 6.9996C3.0387 8.27129 2.40051 9.92978 2.40601 11.6485C2.40601 13.0345 2.93301 15.4745 4.04601 15.4745ZM8.32101 17.3495H10.254C10.82 17.3495 11.21 16.8815 11.21 16.3735C11.2092 16.1149 11.1061 15.8671 10.9233 15.6842C10.7404 15.5014 10.4926 15.3983 10.234 15.3975V11.5525C10.2358 11.3788 10.1898 11.2079 10.1009 11.0586C10.012 10.9093 9.88375 10.7873 9.73014 10.7062C9.57653 10.625 9.40353 10.5876 9.2301 10.5983C9.05668 10.6089 8.88954 10.6671 8.74701 10.7665L7.73801 11.4395C7.60556 11.5259 7.49671 11.6439 7.42129 11.7828C7.34587 11.9218 7.30625 12.0774 7.30601 12.2355C7.30601 12.8015 7.77401 13.2305 8.32101 13.2115V15.3975C7.77401 15.3975 7.36401 15.8475 7.36401 16.3935C7.36401 16.9005 7.77401 17.3495 8.32101 17.3495ZM14.9 10.4975C16.5 10.4975 17.594 11.6305 17.594 13.3675V14.4605C17.594 16.2175 16.461 17.3505 14.802 17.3505C13.299 17.3505 12.206 16.1985 12.206 14.5005V13.2895C12.206 11.6295 13.338 10.4985 14.9 10.4985V10.4975ZM14.88 12.4455C14.45 12.4565 14.158 12.5675 14.158 13.2705V14.5005C14.158 15.1835 14.373 15.3925 14.9 15.3825C15.368 15.3725 15.622 15.1435 15.622 14.4415V13.3485C15.622 12.5285 15.232 12.4365 14.88 12.4455Z" fill="#1A1C1F"/>
</g>
<defs>
<clipPath id="clip0_184_284">
<rect width="20" height="20" fill="white"/>
</clipPath>
</defs>
</svg>

<svg xmlns="http://www.w3.org/2000/svg" width="20" height="20" fill="none"><g clip-path="url(#a)"><path fill="#1A1C1F" fill-rule="evenodd" d="M4.046 15.475c.644 0 1.034-.546 1.034-.957 0-.469-.741-1.6-.741-2.87 0-2.693 2.05-4.723 4.548-4.957l-.683.644c-.156.194-.293.449-.293.702 0 .507.468.956.996.956.253 0 .532-.091.716-.277l2.178-2.196c.185-.186.268-.454.268-.708a.9.9 0 0 0-.273-.644L9.589 2.942a.94.94 0 0 0-.682-.292 1 1 0 0 0-.996.994.95.95 0 0 0 .293.684l.449.45a6.88 6.88 0 0 0-6.247 6.87c0 1.386.527 3.827 1.64 3.827m4.275 1.874h1.933c.566 0 .956-.468.956-.976a.98.98 0 0 0-.976-.976v-3.844a.946.946 0 0 0-1.487-.787l-1.009.674a.95.95 0 0 0-.432.796c0 .566.468.994 1.015.975v2.187c-.547 0-.957.45-.957.995 0 .508.41.956.957.956m6.579-6.851c1.6 0 2.694 1.133 2.694 2.87v1.092c0 1.758-1.133 2.89-2.792 2.89-1.503 0-2.596-1.152-2.596-2.85v-1.21c0-1.66 1.132-2.791 2.694-2.791zm-.02 1.947c-.43.011-.722.123-.722.825v1.23c0 .684.215.893.742.883.468-.01.722-.24.722-.941v-1.094c0-.82-.39-.912-.742-.903" clip-rule="evenodd"/></g><defs><clipPath id="a"><path fill="#fff" d="M0 0h20v20H0z"/></clipPath></defs></svg>
